X: 1
T: The Humours Of Lissadell
R: reel
M: 4/4
L: 1/8
K: Edor
gf |: eB~B2 eBdB | AF~F2 EDB,A, | B,E~E2 B,EGE | FB~B2 FBdf |
| eB~B2 eBdB | AF~F2 EDB,A, | B,E{G}ED EFGA | (3Bcd ed e2gf :|
|: eB~B2 A2FA | d2 df edef | df~f2 dfbf | afdf edBc |
| d2 fd BcdB | AF~F2 ABde | ~f2ef dfbf | afdf e2gf:|


Tune 649	Setting 28484

